X:1
T:[ID 3-11a]
T:[ID 3-11a]
T:Bezeichnung standardisiert: Menuett Men: 6.
T:Urheber unbekannt Datum in der hier transkribierten schriftlichen Quelle: 1767
C:Urheber unbekannt
C:Datum in der hier transkribierten schriftlichen Quelle: 1767
%%score 1 2
L:1/8
M:3/4
K:D
V:1 treble nm="Primo"
V:2 treble nm="Secondo"
V:1
 d'2 d'2 d'2 | c'3 b a2 | b2 b2 b2 | a3 g f2 | g2 bgbg | f3 g a2 | ba g2 f2 | f2 e4 :: e2 gege | %9
 d3 e f2 | f2 afaf | e3 f g2 | g2 bgbg | f3 g a2 | (3bag f2 Te2 | e2 d4 :| %16
V:2
 !fermata!d2 f2 d2 | a3 g f2 | g2 g2 g2 | f3 e d2 | e2 gege | d3 e f2 | gf e2 d2 | d2 A4 :: %8
 A2 eAeA | F3 A d2 | d2 fdfd | c3 d e2 | e2 gege | d3 e f2 | (3gfe d2 A2 | G2 F4 :| %16

